icon/fa/car-crash.svg

<svg xmlns="http://www.w3.org/2000/svg" viewBox="0 0 640 512"><!--! Font Awesome Free 6.0.0 by @fontawesome - https://fontawesome.com License - https://fontawesome.com/license/free (Icons: CC BY 4.0, Fonts: SIL OFL 1.1, Code: MIT License) Copyright 2022 Fonticons, Inc.--><path d="M176 8c6.6 0 12.4 3.1 14.9 10.09l29.4 73.96 76.1-23.12c6.3-1.9 13.1.21 17.2 5.34.5.58.9 1.18 1.3 1.81-17.1 8.24-32.2 20.85-43.5 37.22l-41 59.2c-27.3 8.9-49.8 31-57.8 60.9l-19.9 74-35.3 32.5c-4.8 4.5-11.9 5.5-17.76 2.7-5.91-2.9-9.48-9-9.02-15.6l5.59-79.4-78.65-12.2c-6.48-1-11.689-5.8-13.147-12.2-1.459-6.4 1.127-13.1 6.527-16.8l65.56-45.1-39.49-69.12a15.991 15.991 0 0 1 1.39-17.91 15.986 15.986 0 0 1 17.15-5.34l76.15 23.12 29.4-73.96C163.6 11.1 169.4 8 176 8zm208.2 91.67 135.6 35.43c32.7 9.6 56.3 38 59 71.7l6.9 83.9c17.2 13.5 25.6 36.3 19.6 58.7l-35.2 131.4c-4.6 17-23 26.3-39.2 22.6l-15.4-4.1c-17.1-4.6-27.2-22.2-22.7-39.2l8.3-31-247.3-66.2-8.2 30.9c-5.5 17.1-22.2 27.2-39.2 22.6l-15.5-4.1c-17.1-4.6-27.2-22.1-22.6-39.2l35.2-131.4c6-22.4 24.7-37.9 46.3-41l47.9-69.2c19.2-27.9 53.9-40.58 86.5-31.83zm-16.5 61.83c-6.6-1.8-13.5.8-17.3 6.3l-32.3 46.7 201.5 54-4.6-57.4c-.5-5.9-5.2-11.5-11.8-13.3l-135.5-36.3zm-99.4 147.3c12.8 3.4 26-4.2 29.4-17 3.5-12.8-4.1-25.9-16.9-29.4-13.7-3.4-26 4.2-29.4 17-3.5 12.8 4.1 26 16.9 29.4zM528 328.7c-12.8-3.4-25.9 4.2-29.4 17-3.4 12.8 4.2 25.9 17 29.4 12.8 3.4 26-4.2 29.4-17 3.4-12.8-4.2-26-17-29.4z"/></svg>

<svg xmlns="http://www.w3.org/2000/svg" viewBox="0 0 640 512" height="1em" width="1em">
<!--! Font Awesome Free 6.0.0 by @fontawesome - https://fontawesome.com License - https://fontawesome.com/license/free (Icons: CC BY 4.0, Fonts: SIL OFL 1.1, Code: MIT License) Copyright 2022 Fonticons, Inc.-->
  <path d="M176 8C182.6 8 188.4 11.1 190.9 18.09L220.3 92.05L296.4 68.93C302.7 67.03 309.5 69.14 313.6 74.27C314.1 74.85 314.5 75.45 314.9 76.08C297.8 84.32 282.7 96.93 271.4 113.3L230.4 172.5C203.1 181.4 180.6 203.5 172.6 233.4L152.7 307.4L117.4 339.9C112.6 344.4 105.5 345.4 99.64 342.6C93.73 339.7 90.16 333.6 90.62 327L96.21 247.6L17.56 235.4C11.08 234.4 5.871 229.6 4.413 223.2C2.954 216.8 5.54 210.1 10.94 206.4L76.5 161.3L37.01 92.18C33.76 86.49 34.31 79.39 38.4 74.27C42.48 69.14 49.28 67.03 55.55 68.93L131.7 92.05L161.1 18.09C163.6 11.1 169.4 8 176 8L176 8zM384.2 99.67L519.8 135.1C552.5 144.7 576.1 173.1 578.8 206.8L585.7 290.7C602.9 304.2 611.3 327 605.3 349.4L570.1 480.8C565.5 497.8 547.1 507.1 530.9 503.4L515.5 499.3C498.4 494.7 488.3 477.1 492.8 460.1L501.1 429.1L253.8 362.9L245.6 393.8C240.1 410.9 223.4 421 206.4 416.4L190.9 412.3C173.8 407.7 163.7 390.2 168.3 373.1L203.5 241.7C209.5 219.3 228.2 203.8 249.8 200.7L297.7 131.5C316.9 103.6 351.6 90.92 384.2 99.67L384.2 99.67zM367.7 161.5C361.1 159.7 354.2 162.3 350.4 167.8L318.1 214.5L519.6 268.5L515 211.1C514.5 205.2 509.8 199.6 503.2 197.8L367.7 161.5zM268.3 308.8C281.1 312.2 294.3 304.6 297.7 291.8C301.2 279 293.6 265.9 280.8 262.4C267.1 259 254.8 266.6 251.4 279.4C247.9 292.2 255.5 305.4 268.3 308.8zM528 328.7C515.2 325.3 502.1 332.9 498.6 345.7C495.2 358.5 502.8 371.6 515.6 375.1C528.4 378.5 541.6 370.9 545 358.1C548.4 345.3 540.8 332.1 528 328.7z"/>
</svg>
